24x24/apps/deepin-launcher.svg

<svg xmlns="http://www.w3.org/2000/svg" width="24" height="24" version="1"><circle style="opacity:.2" cx="11.5" cy="12" r="10.5"/><circle style="fill:#249eff" cx="11.5" cy="11.5" r="10.5"/><rect style="fill:#f4f4f7" width="4" height="4" x="12" y="7" rx="1" ry="1"/><rect style="fill:#f4f4f7" width="4" height="4" x="7" y="12" rx="1" ry="1"/><rect style="opacity:.6;fill:#f4f4f7" width="4" height="4" x="7" y="7" rx="1" ry="1"/><rect style="opacity:.6;fill:#f4f4f7" width="4" height="4" x="12" y="12" rx="1" ry="1"/><path style="fill:#f4f4f7;opacity:.2" d="M11.5 1A10.5 10.5 0 0 0 1 11.5a10.5 10.5 0 0 0 .01.297A10.5 10.5 0 0 1 11.5 1.5a10.5 10.5 0 0 1 10.49 10.203A10.5 10.5 0 0 0 22 11.5 10.5 10.5 0 0 0 11.5 1z"/><path style="opacity:.2" d="M7 10v.5c0 .554.446 1 1 1h2c.554 0 1-.446 1-1V10c0 .554-.446 1-1 1H8c-.554 0-1-.446-1-1zm5 0v.5c0 .554.446 1 1 1h2c.554 0 1-.446 1-1V10c0 .554-.446 1-1 1h-2c-.554 0-1-.446-1-1zm-5 5v.5c0 .554.446 1 1 1h2c.554 0 1-.446 1-1V15c0 .554-.446 1-1 1H8c-.554 0-1-.446-1-1zm5 0v.5c0 .554.446 1 1 1h2c.554 0 1-.446 1-1V15c0 .554-.446 1-1 1h-2c-.554 0-1-.446-1-1z"/></svg>

<svg xmlns="http://www.w3.org/2000/svg" width="24" height="24" version="1">
 <circle style="opacity:0.2" cx="11.5" cy="12" r="10.5"/>
 <circle style="fill:#249eff" cx="11.5" cy="11.5" r="10.5"/>
 <rect style="fill:#f4f4f7" width="4" height="4" x="12" y="7" rx="1" ry="1"/>
 <rect style="fill:#f4f4f7" width="4" height="4" x="7" y="12" rx="1" ry="1"/>
 <rect style="opacity:0.6;fill:#f4f4f7" width="4" height="4" x="7" y="7" rx="1" ry="1"/>
 <rect style="opacity:0.6;fill:#f4f4f7" width="4" height="4" x="12" y="12" rx="1" ry="1"/>
 <path style="fill:#f4f4f7;opacity:0.2" d="M 11.5 1 A 10.5 10.5 0 0 0 1 11.5 A 10.5 10.5 0 0 0 1.0097656 11.796875 A 10.5 10.5 0 0 1 11.5 1.5 A 10.5 10.5 0 0 1 21.990234 11.703125 A 10.5 10.5 0 0 0 22 11.5 A 10.5 10.5 0 0 0 11.5 1 z"/>
 <path style="opacity:0.2" d="M 7 10 L 7 10.5 C 7 11.054 7.446 11.5 8 11.5 L 10 11.5 C 10.554 11.5 11 11.054 11 10.5 L 11 10 C 11 10.554 10.554 11 10 11 L 8 11 C 7.446 11 7 10.554 7 10 z M 12 10 L 12 10.5 C 12 11.054 12.446 11.5 13 11.5 L 15 11.5 C 15.554 11.5 16 11.054 16 10.5 L 16 10 C 16 10.554 15.554 11 15 11 L 13 11 C 12.446 11 12 10.554 12 10 z M 7 15 L 7 15.5 C 7 16.054 7.446 16.5 8 16.5 L 10 16.5 C 10.554 16.5 11 16.054 11 15.5 L 11 15 C 11 15.554 10.554 16 10 16 L 8 16 C 7.446 16 7 15.554 7 15 z M 12 15 L 12 15.5 C 12 16.054 12.446 16.5 13 16.5 L 15 16.5 C 15.554 16.5 16 16.054 16 15.5 L 16 15 C 16 15.554 15.554 16 15 16 L 13 16 C 12.446 16 12 15.554 12 15 z"/>
</svg>
